X:19
T:Martin O'Connor's
R:barndance
D:Terry Bingham
Z:id:hn-barndance-19
M:C|
L:1/8
K:Edor
FA | BA (3Bcd ecdB | AFEF DEFG | ABcA dABF | E2ED E2 :|
|: FA | BA (3Bcd g2 (3fgf | edBc d2df | efed BA (3Bcd | edfd edBd |
g2 (3fgf efdB | AFEF DEFG | ABcA dABF | E2ED E2 :|

